X: 1
T: Bonaparte Crossing the Rhine
P: piffero primo a0724
O: John Ciaglia
%R: reel
S: http://ancients.sudburymuster.org/mus/med/pdf/bonaparteC0.pdf
Z: 2020 John Chambers <jc:trillian.mit.edu>
M: 4/4
L: 1/16
K: Am
E2FG |\
A3Bc2B2 A2G2E2G2 | ABcd edc2 B2z2e2fg | a2g2e2d2 c2A2G2E2 | G4 G3A G2z2E2FG |\
A3Bc2B2 A2G2E2G2 |
ABcd edc2 B2z2e2fg | a2g2e2d2 c2A2G2E2 | A4 A3B A4 :: e2fg |\
a2g2efg2 a2z2e2fg | a2g2edc2 B2z2e2fg |
a2g2e2d2 c2A2G2E2 | G4 G3A G2z2E2FG |\
A3Bc2B2 A2G2E2G2 | ABcd edc2 B2z2e2fg | a2g2e2d2 | c2A2G2E2 | A4 A3B | A4 :|


